X:1
T:Beati mortui
T:Beati mortui
T:Op. 115, 1
T:Felix Mendelssohn
T:Matthias Cheah
T:Matthias Cheah
T:Matthias Cheah
C:Felix Mendelssohn
Z:Matthias Cheah
%%score 1 2 3 4
L:1/8
Q:1/4=84
M:4/4
K:C
V:1 treble-8 nm="Tenor" snm="T."
V:2 treble-8 nm="Tenor" snm="T."
V:3 bass nm="Bass" snm="B."
V:4 bass nm="Bass" snm="B."
V:1
"^Andante sostenuto"!p! e2 | e4 d4 | f3 f e2 c2 | c2 cc d2 e2 | d4 G2 G2 | A4 A4 | G3 G G2 z2 | %7
w: Be-|a- ti|mor- tu- i in|Do- mi- no mo- ri-|en- tes, be-|a- ti|mor- tu- i,|
 z4 z2"^cresc." d2 | e4 e2 e2 |!f! e2 ee d2 e2 | (f4 e2) d2 | e8 | e4 z2!p! A2 | d8 | %14
w: be-|a- ti in|Do- mi- no mo- ri-|en- tes de-|in-|ceps, be-|a-|
 d4 z2!pp! c2 | B8 | A4 z4 | z8 | z4!f! c3 c | f2 c2 d3 d | c2!p! c2 c2 c2 | _B4 A4 | %22
w: ti, be-|a-|ti!||Di- cit|e- nim spi- ri-|tus, ut re- qui-|e- scant|
 G2 G2 _B2 AG | G8 | A4!f! A3 _B | c2 A2 d3 e | e2 e2 e2 e2 | f4 e4 | d2 d2 f2 ed | e4 e2!p! c2 | %30
w: a la- bo- ri- bus|su-|is, di- cit|e- nim spi- ri-|tus, ut re- qui-|e- scant|a la- bo- ri- bus|su- is, et|
 d3 d d2 d2 | d4 d4 | z2"^cresc." e2 e2 e2 | f4 f4 | z2!f! ^f2 f2 f2 | g8 | !fermata!G6!p! e2 | %37
w: o- pe- ra il-|lo- rum|se- quun- tur|ip- sos,|se- quun- tur|ip-|sos. Be-|
 e4 d4 | f3 f e2 c2 | c2 cc d2 e2 | d4 G2!p! e2 |!<(! e4 g4!<)! |!>(!!>(! g3 f f2!>)!!>)! e2 | d8 | %44
w: a- ti|mor- tu- i in|Do- mi- no mo- ri-|en- tes, be-|a- ti|mor- tu- i, be-|a-|
 e4 z4 | z4 z2 d2 | g2 f2 e2 d2 | (c4 d2) e2 | d6 e2 | e4 z4 | z4 z2 d2 | g2 f2 e4- | e3 e f2 d2 | %53
w: ti,|be-|a- ti mor- tu-|i _ de-|in- *|ceps,|be-|a- ti mor-|* tu- i de-|
!p! (d8 | c8) |!pp! !fermata!c8 |] %56
w: in-||ceps.|
V:2
!p!!p! c2 | c4 B4 | c3 c c2 G2 | A2 GG AB c2 | c4 B2 z2 | z8 | z4 z2"^cresc." d2 | d4 d4 | %8
w: ||||||be-|a- ti|
 d3 d c2 B2 |!f! c2 cc d2 c2 | (B4 c2) d2 | (c4 B4) | c4 z2!p! A2 | A8 | ^G4 z2!pp! A2 | (A4 ^G4) | %16
w: mor- tu- i in||||||||
 z8 | z8 | z4!f! A3 _B | c2 A2 F2 G2 | A2!p! A2 A2 A2 | G4 F4 | F2 F2 F2 FF | (F4 E4) | %24
w: ||||||||
 F4!f! A3 _B | c2 A2 d3 ^c | ^c2 c2 c2 c2 | d4 =B4 | d2 d2 d2 =cB | B4 c2!p! A2 | A3 A A2 A2 | %31
w: |||||||
 A4 A4 | z2"^cresc." _B2 B2 B2 | c4 c4 | z2!f! d2 d2 d2 | (e4 d2 c2) | !fermata!d6!p! c2 | c4 B4 | %38
w: ||||ip- * *|sos. *||
 c2 d2 e2 c2 | c2 cc B2 c2 | c4 B2!p! c2 |!<(!!<(! c4 c4!<)!!<)! |!>(! c3 c c2!>)! c2 | (c4 B4) | %44
w: ||||||
 c4 z2 c2 | f2 e2 d2 c2 | B6 ^G2 | A4 c2 c2 | (c4 B4) | c4 z2 c2 | f2 e2 d2 c2 | B6 d2 | c4 c2 c2 | %53
w: * be-|a- ti mor- tu-|ti, de-|in- ceps, be-|a- *|ti, be-|a- ti mor- tu-|ti, be-|a- ti, be-|
!p! (c4 B4) | c4!pp! A4 | A4 !fermata!G4 |] %56
w: a- *|ti, be-|a- ti!|
V:3
 G,2 | G,4 G,4 | A,3 A, G,2 E,2 | F,2 E,E, F,2 G,2 | G,4 G,2 z2 | z4 z2"^cresc." C2 | C4 C4 | %7
w: Be-|a- ti|mor- tu- i in|Do- mi- no mo- ri-|en- tes,|be-|a- ti|
 C3 B, B,2 A,2 | ^G,4 G,2 G,2 |!f! A,2 A,A, A,2 A,2 | (A,4 A,2) A,2 | (A,4 ^G,4) | A,4 z2!p! A,2 | %13
w: mor- tu- i be-|a- ti in|Do- mi- no mo- ri-|en- tes de-|in- *|ceps, be-|
 F,8 | E,4 z2!pp! E,2 | E,8 | A,,4!f! A,3 _B, | C2 A,2 F,2 G,2 | A,4 F,3 G, | A,2 F,2 _B,3 B, | %20
w: a-|ti, be-|a-|ti! Di- cit|e- nim spi- ri-|tus, di- cit|e- nim spi- ri-|
 F,2!p! F,2 F,2 F,2 | (D,2 E,2) F,4 | _B,,2 B,,2 D,2 C,B,, | C,8 | F,,4!f! A,3 _B, | %25
w: tus, ut re- qui-|e- * scant|a la- bo- ri- bus|su-|is, di- cit|
 C2 A,2 F,3 E, | E,2 A,2 A,2 A,2 | A,4 ^G,4 | A,2 A,2 A,2 A,A, | ^G,4 A,2 z2 | z4 z2!p! C2 | %31
w: e- nim spi- ri-|tus, ut re- qui-|e- scant|a la- bo- ri- bus|su- is,|et|
 C3 C C2 C2 |"^cresc." C4 C4 | z2!f! C2 C2 C2 | C4 C4 | (C4 B,2 A,2) | !fermata!B,6!p! G,2 | %37
w: o- pe- ra il-|lo- rum|se- quun- tur|ip- sos,|ip- * *|sos. Be-|
 G,4 G,4 | A,2 B,2 C2 G,2 | A,2 G,G, G,2 G,2 | G,4 G,2!p! G,2 |!<(! G,4 _B,4!<)! | %42
w: a- ti|mor- tu- i in|Do- mi- no mo- ri-|en- tes, *||
 _B,3 A, A,2 A,2 | (A,6 D,2) | E,2 G,2 C2 =B,2 | A,2 G,2 F,4- | F,2 A,2 ^G,2 G,2 | A,3 A, A,2 A,2 | %48
w: mor- tu- i, be-|a- *|ti, be- a- ti|mor- tu- i|_ be- a- ti|mor- tu- i de-|
 (A,4 =G,4) | G,2 G,2 C2 B,2 | A,2 G,2 F,4- | F,2 A,2 ^G,2 G,2 | A,3 A, A,2 A,2 |!p! =G,8 | %54
w: in- *|ceps, be- a- ti|mor- tu- i,|_ be- a- ti|mor- tu- i de-|in-|
 G,4!pp! F,4 | F,4 !fermata!E,4 |] %56
w: ceps, be-|a- ti!|
V:4
!p! C,2 | C,4 G,,4 | F,,3 F,, C,2 E,2 | F,2 E,E, D,2 C,2 | G,4 G,,2"^cresc." G,2 | G,4 F,4 | %6
w: ||||* * be-|a- ti|
 F,3 E, E,2 D,2 | (G,6 F,2) | E,6 E,2 |!f! A,2 G,F, F,2 E,2 | (D,4 E,2) F,2 | E,8 | %12
w: mor- tu- i, be-|a- *|ti *||||
 A,,4 z2!p! A,,2 | D,8 | E,4 z2!pp! A,,2 | [E,,E,]8 | A,,4!f! A,3 _B, | C2 A,2 F,2 G,2 | %18
w: ||||||
 A,4 F,3 G, | A,2 F,2 [_B,,_B,]3 [B,,B,] | F,2!p! F,2 F,2 F,,2 | G,,4 A,,4 | _B,,2 B,,2 D,2 C,B,, | %23
w: |||||
 C,8 | F,,4!f! A,3 _B, | C2 A,2 D,3 A,, | A,,8 | D,4 E,4 | (F,4 D,2) E,F, | E,4 A,,2!p! A,2 | %30
w: |* di- cit|e- nim spi- ri-|tus,|a la-|bo- * ri- bus|su- is, et|
 F,3 F, F,2 F,2 | F,4 F,4 | z2"^cresc." G,2 G,2 G,2 | A,4 A,4 | z2!f! D,2 D,2 D,2 | G,8 | %36
w: o- pe- ra il-|lo- rum|se- quun- tur|ip- sos,|se- quun- tur|ip-|
 !fermata!G,,6!p! C,2 | C,8- | C,4 C,2 E,2 | F,2 E,E, D,2 C,2 | G,4 G,,2!p! C,2 | C,4 C,4 | %42
w: sos. be-|a-|* ti in||||
!>(! F,3 F, F,2!>)! F,,2 | G,,8 | C,4 C,4- | C,4 D,4- | D,4 E,2 E,2 | (A,2 G,2) F,2 E,2 | %48
w: * * * be-|a-|ti, be-|* a-|* ti, be-|a- * ti de-|
 (F,4 G,4) | C,4 C,4- | C,4 D,4- | D,4 E,4 | A,3 A, F,2 F,2 |!p! (G,8 | C,8) |!pp! !fermata!C,8 |] %56
w: in- *|ceps, be-|* a-|* ti,|mor- tu- i de-|in-||ceps.|

